; generated by PrusaSlicer 2.1.0 on 2019-10-05 at 17:11:33 UTC

; 

; external perimeters extrusion width = 0.45mm
; perimeters extrusion width = 0.45mm
; infill extrusion width = 0.45mm
; solid infill extrusion width = 0.45mm
; top infill extrusion width = 0.40mm
; first layer extrusion width = 0.42mm

M73 P0 R110
M73 Q0 S110
M201 X1000 Y1000 Z1000 E5000 ; sets maximum accelerations, mm/sec^2
M203 X200 Y200 Z12 E120 ; sets maximum feedrates, mm/sec
M204 P1250 R1250 T1250 ; sets acceleration (P, T) and retract acceleration (R), mm/sec^2
M205 X8.00 Y8.00 Z0.40 E1.50 ; sets the jerk limits, mm/sec
M205 S0 T0 ; sets the minimum extruding and travel feed rate, mm/sec
M107
M862.3 P "MK3" ; printer model check
M862.1 P0.4 ; nozzle diameter check
M115 U3.8.0 ; tell printer latest fw version
G90 ; use absolute coordinates
M83 ; extruder relative mode
M104 S215 ; set extruder temp
M140 S60 ; set bed temp
M190 S60 ; wait for bed temp
M109 S215 ; wait for extruder temp
G28 W ; home all without mesh bed level
G80 ; mesh bed leveling
G1 Y-3.0 F1000.0 ; go outside print area
G92 E0.0
G1 X60.0 E9.0 F1000.0 ; intro line
M73 Q0 S110
M73 P0 R110
G1 X100.0 E12.5 F1000.0 ; intro line
G92 E0.0
M221 S95
G21 ; set units to millimeters
G90 ; use absolute coordinates
M83 ; use relative distances for extrusion
M900 K30 ; Filament gcode
;BEFORE_LAYER_CHANGE
G92 E0.0
;0.2


G1 E-0.80000 F2100.00000
G1 Z0.600 F10800.000
;AFTER_LAYER_CHANGE
;0.2
G1 X58.361 Y74.690
G1 Z0.200
G1 E0.80000 F2100.00000
M204 S1000
G1 F1200
G1 X59.035 Y74.388 E0.02315
G1 X160.268 Y48.489 E3.27634
G1 X190.424 Y48.448 E0.94551
G1 X191.251 Y48.611 E0.02642
G1 X191.952 Y49.073 E0.02631
G1 X192.429 Y49.767 E0.02642
G1 X192.609 Y50.590 E0.02642
G1 X192.602 Y149.043 E3.08690
G1 X192.420 Y149.754 E0.02304
G1 X192.012 Y150.366 E0.02304
G1 X181.141 Y161.180 E0.48078
G1 X180.566 Y161.455 E0.01998
G1 X179.936 Y161.552 E0.01998
G1 X134.779 Y161.513 E1.41587
G1 X69.425 Y148.823 E2.08739
G1 X68.959 Y148.615 E0.01601
G1 X68.552 Y148.302 E0.01612
G1 X57.763 Y137.456 E0.47967
G1 X57.488 Y136.881 E0.01998
G1 X57.391 Y136.247 E0.02010
G1 X57.391 Y76.486 E1.87377
G1 X57.460 Y75.962 E0.01658
G1 X57.655 Y75.466 E0.01669
G1 X57.960 Y75.035 E0.01658
G1 X58.315 Y74.729 E0.01469
G1 F8640
G1 X59.035 Y74.388 E-0.18381
G1 X61.452 Y73.770 E-0.57619
G1 E-0.04000 F2100.00000
G1 Z0.800 F10800.000
G1 X125.726 Y97.669
G1 Z0.200
G1 E0.80000 F2100.00000
G1 F1200
G1 X153.388 Y97.669 E0.86732
G1 X153.388 Y101.832 E0.13054
G1 X147.023 Y101.848 E0.19957
G1 X146.126 Y101.951 E0.02830
G1 X145.254 Y102.256 E0.02897
G1 X144.466 Y102.751 E0.02918
G1 X143.808 Y103.409 E0.02918
G1 X143.313 Y104.197 E0.02918
G1 X143.006 Y105.075 E0.02918
G1 X142.905 Y105.966 E0.02811
G1 X142.889 Y112.331 E0.19956
G1 X136.225 Y112.331 E0.20897
G1 X136.209 Y105.966 E0.19956
G1 X136.108 Y105.075 E0.02811
G1 X135.801 Y104.197 E0.02918
G1 X135.306 Y103.409 E0.02918
G1 X134.648 Y102.751 E0.02918
G1 X133.860 Y102.256 E0.02918
G1 X132.982 Y101.949 E0.02918
G1 X132.091 Y101.848 E0.02811
G1 X125.726 Y101.832 E0.19956
G1 X125.726 Y97.729 E0.12866
G1 X125.349 Y97.292 F10800.000
G1 F1200
G1 X153.765 Y97.292 E0.89096
G1 X153.765 Y102.209 E0.15415
G1 X147.045 Y102.225 E0.21071
G1 X146.211 Y102.321 E0.02632
G1 X145.419 Y102.598 E0.02631
G1 X144.703 Y103.048 E0.02651
G1 X144.105 Y103.646 E0.02651
G1 X143.655 Y104.362 E0.02651
G1 X143.376 Y105.160 E0.02651
G1 X143.282 Y105.988 E0.02613
G1 X143.265 Y112.708 E0.21070
G1 X135.848 Y112.708 E0.23256
G1 X135.832 Y105.988 E0.21070
G1 X135.738 Y105.160 E0.02613
G1 X135.459 Y104.362 E0.02651
G1 X135.009 Y103.646 E0.02651
G1 X134.411 Y103.048 E0.02651
G1 X133.695 Y102.598 E0.02651
G1 X132.897 Y102.319 E0.02651
G1 X132.069 Y102.225 E0.02613
G1 X125.349 Y102.209 E0.21070
G1 X125.349 Y97.352 E0.15227
G1 X125.740 Y97.376 F10800.000
G1 F8640
G1 X128.640 Y97.345 E-0.76000
G1 E-0.04000 F2100.00000
G1 Z0.800 F10800.000
G1 X126.617 Y101.722
G1 Z0.200
G1 E0.80000 F2100.00000
G1 F1200
G1 X126.009 Y101.114 E0.02741
G1 X126.009 Y100.571 E0.01729
G1 X126.990 Y101.553 E0.04424
G1 X127.534 Y101.554 E0.01733
G1 X126.009 Y100.029 E0.06875
G1 X126.009 Y99.487 E0.01729
G1 X128.077 Y101.556 E0.09326
G1 X128.621 Y101.557 E0.01733
G1 X126.009 Y98.945 E0.11777
G1 X126.009 Y98.403 E0.01729
G1 X129.165 Y101.558 E0.14227
G1 X129.708 Y101.560 E0.01733
G1 X126.100 Y97.952 E0.16266
G1 X126.643 Y97.952 E0.01729
G1 X130.252 Y101.561 E0.16272
G1 X130.795 Y101.562 E0.01733
G1 X127.185 Y97.952 E0.16278
G1 X127.727 Y97.952 E0.01729
G1 X131.339 Y101.564 E0.16284
G1 X131.882 Y101.565 E0.01733
G1 X128.269 Y97.952 E0.16290
G1 X128.811 Y97.952 E0.01729
G1 X132.466 Y101.606 E0.16475
G1 X133.088 Y101.687 E0.02002
G1 X129.354 Y97.952 E0.16838
G1 X129.896 Y97.952 E0.01729
G1 X134.416 Y102.472 E0.20378
G1 F8640
G1 X132.088 Y100.144 E-0.76000
G1 E-0.04000 F2100.00000
G1 Z0.800 F10800.000
G1 X137.113 Y112.218
G1 Z0.200
G1 E0.80000 F2100.00000
G1 F1200
G1 X136.506 Y111.610 E0.02739
G1 X136.504 Y111.067 E0.01733
G1 X137.486 Y112.048 E0.04424
G1 X138.028 Y112.048 E0.01729
G1 X136.503 Y110.523 E0.06875
G1 X136.501 Y109.980 E0.01733
G1 X138.570 Y112.048 E0.09326
G1 X139.112 Y112.048 E0.01729
G1 X136.500 Y109.436 E0.11777
G1 X136.499 Y108.892 E0.01733
G1 X139.654 Y112.048 E0.14227
G1 X140.197 Y112.048 E0.01729
G1 X136.497 Y108.349 E0.16678
G1 X136.496 Y107.805 E0.01733
G1 X140.739 Y112.048 E0.19129
G1 X141.281 Y112.048 E0.01729
G1 X136.495 Y107.262 E0.21580
G1 X136.493 Y106.718 E0.01733
G1 X141.823 Y112.048 E0.24030
G1 X142.365 Y112.048 E0.01729
G1 X136.492 Y106.175 E0.26481
G1 X136.491 Y105.950 E0.00716
G1 X136.451 Y105.591 E0.01151
G1 X142.608 Y111.748 E0.27760
G1 X142.609 Y111.208 E0.01724
G1 X136.370 Y104.969 E0.28128
G1 X136.079 Y104.135 E0.02817
G1 X142.611 Y110.667 E0.29450
G1 X142.612 Y110.126 E0.01724
G1 X130.438 Y97.952 E0.54887
G1 X130.980 Y97.952 E0.01729
G1 X142.613 Y109.585 E0.52448
G1 X142.615 Y109.044 E0.01724
G1 X131.523 Y97.952 E0.50010
G1 X132.065 Y97.952 E0.01729
G1 X142.616 Y108.503 E0.47572
G1 X142.618 Y107.963 E0.01724
G1 X132.607 Y97.952 E0.45133
G1 X133.149 Y97.952 E0.01729
G1 X142.619 Y107.422 E0.42695
G1 X142.620 Y106.881 E0.01724
G1 X133.691 Y97.952 E0.40256
G1 X134.234 Y97.952 E0.01729
G1 X142.622 Y106.340 E0.37818
G1 X142.638 Y105.814 E0.01677
G1 X134.776 Y97.952 E0.35447
G1 X135.318 Y97.952 E0.01729
G1 X142.693 Y105.327 E0.33250
G1 X142.728 Y105.012 E0.01010
G1 X142.778 Y104.870 E0.00480
G1 X135.860 Y97.952 E0.31190
G1 X136.402 Y97.952 E0.01729
G1 X142.919 Y104.468 E0.29379
G1 X143.060 Y104.068 E0.01354
G1 X136.945 Y97.952 E0.27573
G1 X137.487 Y97.952 E0.01729
G1 X143.270 Y103.735 E0.26072
G1 X143.479 Y103.402 E0.01254
G1 X138.029 Y97.952 E0.24571
G1 X138.571 Y97.952 E0.01729
G1 X143.718 Y103.099 E0.23206
G1 X143.990 Y102.828 E0.01222
G1 X139.113 Y97.952 E0.21984
G1 X139.656 Y97.952 E0.01729
G1 X144.261 Y102.557 E0.20761
G1 X144.587 Y102.341 E0.01248
G1 X140.198 Y97.952 E0.19789
G1 X140.740 Y97.952 E0.01729
G1 X144.920 Y102.132 E0.18846
G1 X145.131 Y102.000 E0.00792
G1 X145.278 Y101.948 E0.00499
G1 X141.282 Y97.952 E0.18017
G1 X141.825 Y97.952 E0.01729
G1 X145.680 Y101.807 E0.17383
G1 X146.086 Y101.671 E0.01365
G1 X142.367 Y97.952 E0.16768
G1 X142.909 Y97.952 E0.01729
G1 X146.572 Y101.615 E0.16517
G1 X147.065 Y101.566 E0.01578
G1 X143.451 Y97.952 E0.16292
G1 X143.993 Y97.952 E0.01729
G1 X147.606 Y101.564 E0.16286
G1 X148.147 Y101.563 E0.01724
G1 X144.536 Y97.952 E0.16280
G1 X145.078 Y97.952 E0.01729
G1 X148.687 Y101.561 E0.16274
G1 X149.228 Y101.560 E0.01724
G1 X145.620 Y97.952 E0.16268
G1 X146.162 Y97.952 E0.01729
G1 X149.769 Y101.559 E0.16261
G1 X150.310 Y101.557 E0.01724
G1 X146.704 Y97.952 E0.16255
G1 X147.247 Y97.952 E0.01729
G1 X150.851 Y101.556 E0.16249
G1 X151.392 Y101.555 E0.01724
G1 X147.789 Y97.952 E0.16243
G1 X148.331 Y97.952 E0.01729
G1 X151.932 Y101.553 E0.16237
G1 X152.473 Y101.552 E0.01724
G1 X148.873 Y97.952 E0.16231
G1 X149.416 Y97.952 E0.01729
G1 X153.014 Y101.551 E0.16225
M73 Q0 S109
G1 X153.105 Y101.550 E0.00290
G1 X153.105 Y101.099 E0.01438
G1 X149.958 Y97.952 E0.14190
G1 X150.500 Y97.952 E0.01729
G1 X153.105 Y100.557 E0.11745
M73 P0 R109
G1 X153.105 Y100.015 E0.01729
G1 X151.042 Y97.952 E0.09301
G1 X151.584 Y97.952 E0.01729
G1 X153.105 Y99.473 E0.06856
G1 X153.105 Y98.930 E0.01729
G1 X152.127 Y97.952 E0.04412
G1 X152.669 Y97.952 E0.01729
G1 X153.275 Y98.558 E0.02732
G1 F8640
G1 X152.669 Y97.952 E-0.19789
G1 X152.127 Y97.952 E-0.12520
G1 X153.105 Y98.930 E-0.31953
G1 X153.105 Y99.439 E-0.11738
G1 E-0.04000 F2100.00000
G1 Z0.800 F10800.000
G1 X142.889 Y76.331
G1 Z0.200
G1 E0.80000 F2100.00000
G1 F1200
G1 X136.225 Y76.331 E0.20897
G1 X136.209 Y69.966 E0.19956
G1 X136.108 Y69.075 E0.02811
G1 X135.801 Y68.197 E0.02918
G1 X135.306 Y67.409 E0.02918
G1 X134.648 Y66.751 E0.02918
G1 X133.860 Y66.256 E0.02918
G1 X132.982 Y65.949 E0.02918
G1 X132.091 Y65.848 E0.02811
G1 X125.726 Y65.832 E0.19956
G1 X125.726 Y61.669 E0.13054
G1 X153.388 Y61.669 E0.86732
G1 X153.388 Y65.832 E0.13054
G1 X147.023 Y65.848 E0.19957
G1 X146.126 Y65.951 E0.02830
G1 X145.254 Y66.256 E0.02897
G1 X144.466 Y66.751 E0.02918
G1 X143.808 Y67.409 E0.02918
G1 X143.313 Y68.197 E0.02918
G1 X143.006 Y69.075 E0.02918
G1 X142.905 Y69.966 E0.02811
G1 X142.890 Y76.271 E0.19768
G1 X143.265 Y76.708 F10800.000
G1 F1200
G1 X135.848 Y76.708 E0.23256
G1 X135.832 Y69.988 E0.21070
G1 X135.738 Y69.160 E0.02613
G1 X135.459 Y68.362 E0.02651
G1 X135.009 Y67.646 E0.02651
G1 X134.411 Y67.048 E0.02651
G1 X133.695 Y66.598 E0.02651
G1 X132.897 Y66.319 E0.02651
G1 X132.069 Y66.225 E0.02613
G1 X125.349 Y66.209 E0.21070
G1 X125.349 Y61.292 E0.15415
G1 X153.765 Y61.292 E0.89096
G1 X153.765 Y66.209 E0.15415
G1 X147.045 Y66.225 E0.21071
G1 X146.211 Y66.321 E0.02632
G1 X145.419 Y66.598 E0.02631
G1 X144.703 Y67.048 E0.02651
G1 X144.105 Y67.646 E0.02651
G1 X143.655 Y68.362 E0.02651
G1 X143.376 Y69.160 E0.02651
G1 X143.282 Y69.988 E0.02613
G1 X143.266 Y76.648 E0.20882
G1 X142.920 Y76.506 F10800.000
G1 F8640
G1 X139.974 Y76.675 E-0.76000
G1 E-0.04000 F2100.00000
G1 Z0.800 F10800.000
G1 X137.113 Y76.218
G1 Z0.200
G1 E0.80000 F2100.00000
G1 F1200
G1 X136.506 Y75.610 E0.02739
G1 X136.504 Y75.067 E0.01733
G1 X137.486 Y76.048 E0.04424
G1 X138.028 Y76.048 E0.01729
G1 X136.503 Y74.523 E0.06875
G1 X136.501 Y73.980 E0.01733
G1 X138.570 Y76.048 E0.09326
G1 X139.112 Y76.048 E0.01729
G1 X136.500 Y73.436 E0.11777
G1 X136.499 Y72.892 E0.01733
G1 X139.654 Y76.048 E0.14227
G1 X140.197 Y76.048 E0.01729
G1 X136.497 Y72.349 E0.16678
G1 X136.496 Y71.805 E0.01733
G1 X140.739 Y76.048 E0.19129
G1 X141.281 Y76.048 E0.01729
G1 X136.495 Y71.262 E0.21580
G1 X136.493 Y70.718 E0.01733
G1 X141.823 Y76.048 E0.24030
G1 X142.365 Y76.048 E0.01729
G1 X136.492 Y70.175 E0.26481
G1 X136.491 Y69.950 E0.00716
G1 X136.451 Y69.591 E0.01151
G1 X142.608 Y75.748 E0.27760
G1 X142.609 Y75.208 E0.01724
G1 X136.370 Y68.969 E0.28128
G1 X136.079 Y68.135 E0.02817
G1 X142.611 Y74.667 E0.29450
G1 X142.612 Y74.126 E0.01724
G1 X130.438 Y61.952 E0.54887
G1 X130.980 Y61.952 E0.01729
G1 X142.613 Y73.585 E0.52448
G1 X142.615 Y73.044 E0.01724
G1 X131.523 Y61.952 E0.50010
G1 X132.065 Y61.952 E0.01729
G1 X142.616 Y72.503 E0.47572
G1 X142.618 Y71.963 E0.01724
G1 X132.607 Y61.952 E0.45133
G1 X133.149 Y61.952 E0.01729
G1 X142.619 Y71.422 E0.42695
G1 X142.620 Y70.881 E0.01724
G1 X133.691 Y61.952 E0.40256
G1 X134.234 Y61.952 E0.01729
G1 X142.622 Y70.340 E0.37818
G1 X142.638 Y69.814 E0.01677
G1 X134.776 Y61.952 E0.35447
G1 X135.318 Y61.952 E0.01729
G1 X142.693 Y69.327 E0.33250
G1 X142.728 Y69.012 E0.01010
G1 X142.778 Y68.870 E0.00480
G1 X135.860 Y61.952 E0.31190
G1 X136.402 Y61.952 E0.01729
G1 X142.919 Y68.468 E0.29379
G1 X143.060 Y68.068 E0.01354
G1 X136.945 Y61.952 E0.27573
G1 X137.487 Y61.952 E0.01729
G1 X143.270 Y67.735 E0.26072
G1 X143.479 Y67.402 E0.01254
G1 X138.029 Y61.952 E0.24571
G1 X138.571 Y61.952 E0.01729
G1 X143.718 Y67.099 E0.23206
G1 X143.990 Y66.828 E0.01222
G1 X139.113 Y61.952 E0.21984
G1 X139.656 Y61.952 E0.01729
G1 X144.261 Y66.557 E0.20761
G1 X144.587 Y66.341 E0.01248
G1 X140.198 Y61.952 E0.19789
G1 X140.740 Y61.952 E0.01729
G1 X144.920 Y66.132 E0.18846
G1 X145.131 Y66.000 E0.00792
G1 X145.278 Y65.948 E0.00499
G1 X141.282 Y61.952 E0.18017
G1 X141.825 Y61.952 E0.01729
G1 X145.680 Y65.807 E0.17383
G1 X146.086 Y65.671 E0.01365
G1 X142.367 Y61.952 E0.16768
G1 X142.909 Y61.952 E0.01729
G1 X146.572 Y65.615 E0.16517
G1 X147.065 Y65.566 E0.01578
G1 X143.451 Y61.952 E0.16292
G1 X143.993 Y61.952 E0.01729
G1 X147.606 Y65.564 E0.16286
G1 X148.147 Y65.563 E0.01724
G1 X144.536 Y61.952 E0.16280
G1 X145.078 Y61.952 E0.01729
G1 X148.687 Y65.561 E0.16274
G1 X149.228 Y65.560 E0.01724
G1 X145.620 Y61.952 E0.16268
G1 X146.162 Y61.952 E0.01729
G1 X149.769 Y65.559 E0.16261
G1 X150.310 Y65.557 E0.01724
G1 X146.704 Y61.952 E0.16255
G1 X147.247 Y61.952 E0.01729
G1 X150.851 Y65.556 E0.16249
G1 X151.392 Y65.555 E0.01724
G1 X147.789 Y61.952 E0.16243
G1 X148.331 Y61.952 E0.01729
G1 X151.932 Y65.553 E0.16237
G1 X152.473 Y65.552 E0.01724
G1 X148.873 Y61.952 E0.16231
G1 X149.416 Y61.952 E0.01729
G1 X153.014 Y65.551 E0.16225
G1 X153.105 Y65.550 E0.00290
G1 X153.105 Y65.099 E0.01438
G1 X149.958 Y61.952 E0.14190
G1 X150.500 Y61.952 E0.01729
G1 X153.105 Y64.557 E0.11745
G1 X153.105 Y64.015 E0.01729
G1 X151.042 Y61.952 E0.09301
G1 X151.584 Y61.952 E0.01729
G1 X153.105 Y63.473 E0.06856
G1 X153.105 Y62.930 E0.01729
G1 X152.127 Y61.952 E0.04412
G1 X152.669 Y61.952 E0.01729
G1 X153.275 Y62.558 E0.02732
G1 F8640
G1 X152.669 Y61.952 E-0.19789
G1 X152.127 Y61.952 E-0.12520
G1 X153.105 Y62.930 E-0.31953
G1 X153.105 Y63.439 E-0.11738
G1 E-0.04000 F2100.00000
G1 Z0.800 F10800.000
G1 X134.416 Y66.472
G1 Z0.200
G1 E0.80000 F2100.00000
G1 F1200
G1 X129.896 Y61.952 E0.20378
G1 X129.354 Y61.952 E0.01729
G1 X133.088 Y65.687 E0.16838
G1 X132.466 Y65.606 E0.02002
G1 X128.811 Y61.952 E0.16475
G1 X128.269 Y61.952 E0.01729
G1 X131.882 Y65.565 E0.16290
G1 X131.339 Y65.564 E0.01733
G1 X127.727 Y61.952 E0.16284
G1 X127.185 Y61.952 E0.01729
G1 X130.795 Y65.562 E0.16278
G1 X130.252 Y65.561 E0.01733
G1 X126.643 Y61.952 E0.16272
G1 X126.100 Y61.952 E0.01729
G1 X129.708 Y65.560 E0.16266
G1 X129.165 Y65.558 E0.01733
G1 X126.009 Y62.403 E0.14227
G1 X126.009 Y62.945 E0.01729
G1 X128.621 Y65.557 E0.11777
G1 X128.077 Y65.556 E0.01733
G1 X126.009 Y63.487 E0.09326
G1 X126.009 Y64.029 E0.01729
G1 X127.534 Y65.554 E0.06875
G1 X126.990 Y65.553 E0.01733
G1 X126.009 Y64.571 E0.04424
G1 X126.009 Y65.114 E0.01729
G1 X126.617 Y65.722 E0.02741
G1 F8640
G1 X126.009 Y65.114 E-0.19850
G1 X126.009 Y64.571 E-0.12520
G1 X126.990 Y65.553 E-0.32045
G1 X127.492 Y65.554 E-0.11585
G1 E-0.04000 F2100.00000
G1 Z0.800 F10800.000
G1 X161.726 Y55.832
G1 Z0.200
G1 E0.80000 F2100.00000
G1 F1200
G1 X161.726 Y51.669 E0.13054
G1 X189.388 Y51.669 E0.86732
G1 X189.388 Y55.832 E0.13054
G1 X183.023 Y55.848 E0.19957
G1 X182.126 Y55.951 E0.02830
G1 X181.254 Y56.256 E0.02897
G1 X180.466 Y56.751 E0.02918
G1 X179.808 Y57.409 E0.02918
G1 X179.313 Y58.197 E0.02918
G1 X179.006 Y59.075 E0.02918
G1 X178.905 Y59.966 E0.02811
G1 X178.889 Y66.331 E0.19956
G1 X172.225 Y66.331 E0.20897
G1 X172.209 Y59.966 E0.19956
G1 X172.108 Y59.075 E0.02811
G1 X171.801 Y58.197 E0.02918
G1 X171.306 Y57.409 E0.02918
G1 X170.648 Y56.751 E0.02918
G1 X169.860 Y56.256 E0.02918
G1 X168.982 Y55.949 E0.02918
G1 X168.091 Y55.848 E0.02811
G1 X161.786 Y55.833 E0.19768
G1 X161.349 Y56.209 F10800.000
G1 F1200
G1 X161.349 Y51.292 E0.15415
G1 X189.765 Y51.292 E0.89096
G1 X189.765 Y56.209 E0.15415
G1 X183.045 Y56.225 E0.21071
G1 X182.211 Y56.321 E0.02632
G1 X181.419 Y56.598 E0.02631
G1 X180.703 Y57.048 E0.02651
G1 X180.105 Y57.646 E0.02651
G1 X179.655 Y58.362 E0.02651
G1 X179.376 Y59.160 E0.02651
G1 X179.282 Y59.988 E0.02613
G1 X179.265 Y66.708 E0.21070
G1 X171.848 Y66.708 E0.23256
G1 X171.832 Y59.988 E0.21070
G1 X171.738 Y59.160 E0.02613
G1 X171.459 Y58.362 E0.02651
G1 X171.009 Y57.646 E0.02651
G1 X170.411 Y57.048 E0.02651
G1 X169.695 Y56.598 E0.02651
G1 X168.897 Y56.319 E0.02651
G1 X168.069 Y56.225 E0.02613
G1 X161.409 Y56.209 E0.20882
