; generated by PrusaSlicer 2.1.0 on 2019-10-03 at 12:03:05 UTC

; 

; external perimeters extrusion width = 0.45mm
; perimeters extrusion width = 0.45mm
; infill extrusion width = 0.45mm
; solid infill extrusion width = 0.45mm
; top infill extrusion width = 0.40mm
; first layer extrusion width = 0.42mm

M73 P0 R19
M73 Q0 S19
M201 X1000 Y1000 Z1000 E5000 ; sets maximum accelerations, mm/sec^2
M203 X200 Y200 Z12 E120 ; sets maximum feedrates, mm/sec
M204 P1250 R1250 T1250 ; sets acceleration (P, T) and retract acceleration (R), mm/sec^2
M205 X8.00 Y8.00 Z0.40 E1.50 ; sets the jerk limits, mm/sec
M205 S0 T0 ; sets the minimum extruding and travel feed rate, mm/sec
M107
M862.3 P "MK3" ; printer model check
M862.1 P0.4 ; nozzle diameter check
M115 U3.8.0 ; tell printer latest fw version
G90 ; use absolute coordinates
M83 ; extruder relative mode
M104 S215 ; set extruder temp
M140 S60 ; set bed temp
M190 S60 ; wait for bed temp
M109 S215 ; wait for extruder temp
G28 W ; home all without mesh bed level
G80 ; mesh bed leveling
G1 Y-3.0 F1000.0 ; go outside print area
G92 E0.0
G1 X60.0 E9.0 F1000.0 ; intro line
M73 Q0 S19
M73 P0 R19
G1 X100.0 E12.5 F1000.0 ; intro line
G92 E0.0
M221 S95
G21 ; set units to millimeters
G90 ; use absolute coordinates
M83 ; use relative distances for extrusion
M900 K30 ; Filament gcode
;BEFORE_LAYER_CHANGE
G92 E0.0
;0.2


G1 E-0.80000 F2100.00000
G1 Z0.600 F10800.000
;AFTER_LAYER_CHANGE
;0.2
G1 X97.734 Y82.762
G1 Z0.200
G1 E0.80000 F2100.00000
M204 S1000
G1 F1200
G1 X97.925 Y82.176 E0.01930
G1 X98.269 Y81.670 E0.01919
G1 X98.742 Y81.277 E0.01930
G1 X99.303 Y81.032 E0.01919
G1 X99.884 Y80.952 E0.01839
G1 X129.621 Y80.952 E0.93238
G1 X130.085 Y81.002 E0.01464
G1 X130.531 Y81.152 E0.01475
G1 X131.274 Y81.709 E0.02911
G1 X151.800 Y106.242 E1.00295
G1 X152.079 Y106.678 E0.01623
G1 X152.249 Y107.168 E0.01623
G1 X152.298 Y116.407 E0.28971
G1 X152.222 Y116.934 E0.01669
G1 X152.021 Y117.427 E0.01669
G1 X151.666 Y117.899 E0.01851
G1 X141.131 Y128.433 E0.46711
G1 X140.643 Y128.789 E0.01896
G1 X140.075 Y128.998 E0.01896
G1 X130.773 Y129.046 E0.29167
G1 X130.036 Y128.878 E0.02372
G1 X129.397 Y128.467 E0.02383
G1 X118.690 Y117.748 E0.47501
G1 X98.140 Y90.682 E1.06552
G1 X97.900 Y90.277 E0.01475
G1 X97.751 Y89.831 E0.01475
G1 X97.735 Y82.822 E0.21977
G1 F8640
G1 X97.925 Y82.176 E-0.15537
G1 X98.269 Y81.670 E-0.14131
G1 X98.742 Y81.277 E-0.14215
G1 X99.303 Y81.032 E-0.14131
G1 X99.884 Y80.952 E-0.13546
G1 X100.076 Y80.952 E-0.04439
G1 E-0.04000 F2100.00000
G1 Z0.800 F10800.000
G1 X100.923 Y84.173
G1 Z0.200
G1 E0.80000 F2100.00000
G1 F1200
G1 X128.585 Y84.173 E0.86732
G1 X128.585 Y88.336 E0.13054
G1 X122.219 Y88.352 E0.19957
G1 X121.323 Y88.455 E0.02830
G1 X120.451 Y88.760 E0.02897
G1 X119.663 Y89.255 E0.02918
G1 X119.005 Y89.913 E0.02918
G1 X118.510 Y90.701 E0.02918
G1 X118.202 Y91.579 E0.02918
G1 X118.102 Y92.470 E0.02811
G1 X118.086 Y98.835 E0.19956
G1 X111.421 Y98.835 E0.20897
G1 X111.405 Y92.470 E0.19956
G1 X111.305 Y91.579 E0.02811
G1 X110.998 Y90.701 E0.02918
G1 X110.502 Y89.913 E0.02918
G1 X109.845 Y89.255 E0.02918
G1 X109.057 Y88.760 E0.02918
G1 X108.178 Y88.452 E0.02918
G1 X107.287 Y88.352 E0.02811
G1 X100.923 Y88.336 E0.19956
G1 X100.923 Y84.233 E0.12866
G1 X100.546 Y83.796 F10800.000
G1 F1200
G1 X128.962 Y83.796 E0.89096
G1 X128.962 Y88.712 E0.15415
G1 X122.241 Y88.729 E0.21071
G1 X121.407 Y88.825 E0.02632
G1 X120.615 Y89.102 E0.02631
G1 X119.899 Y89.552 E0.02651
G1 X119.302 Y90.149 E0.02651
G1 X118.852 Y90.865 E0.02651
G1 X118.572 Y91.663 E0.02651
G1 X118.479 Y92.492 E0.02613
G1 X118.462 Y99.212 E0.21070
G1 X111.045 Y99.212 E0.23256
G1 X111.028 Y92.492 E0.21070
G1 X110.935 Y91.663 E0.02613
G1 X110.656 Y90.865 E0.02651
G1 X110.206 Y90.149 E0.02651
G1 X109.608 Y89.552 E0.02651
G1 X108.892 Y89.102 E0.02651
G1 X108.094 Y88.822 E0.02651
G1 X107.266 Y88.729 E0.02613
G1 X100.546 Y88.712 E0.21070
G1 X100.546 Y83.856 E0.15227
G1 X100.937 Y83.880 F10800.000
G1 F8640
G1 X103.837 Y83.849 E-0.76000
G1 E-0.04000 F2100.00000
G1 Z0.800 F10800.000
G1 X101.813 Y88.225
G1 Z0.200
G1 E0.80000 F2100.00000
G1 F1200
G1 X101.206 Y87.617 E0.02741
G1 X101.206 Y87.075 E0.01729
G1 X102.187 Y88.056 E0.04424
G1 X102.730 Y88.058 E0.01733
G1 X101.206 Y86.533 E0.06875
G1 X101.206 Y85.991 E0.01729
G1 X103.274 Y88.059 E0.09326
G1 X103.818 Y88.061 E0.01733
G1 X101.206 Y85.448 E0.11777
G1 X101.206 Y84.906 E0.01729
G1 X104.361 Y88.062 E0.14227
G1 X104.905 Y88.063 E0.01733
G1 X101.297 Y84.456 E0.16266
G1 X101.839 Y84.456 E0.01729
G1 X105.448 Y88.065 E0.16272
G1 X105.992 Y88.066 E0.01733
G1 X102.382 Y84.456 E0.16278
G1 X102.924 Y84.456 E0.01729
G1 X106.536 Y88.067 E0.16284
G1 X107.079 Y88.069 E0.01733
G1 X103.466 Y84.456 E0.16290
G1 X104.008 Y84.456 E0.01729
G1 X107.662 Y88.110 E0.16475
G1 X108.285 Y88.190 E0.02002
G1 X104.550 Y84.456 E0.16838
G1 X105.093 Y84.456 E0.01729
G1 X109.613 Y88.976 E0.20378
G1 F8640
G1 X107.285 Y86.648 E-0.76000
G1 E-0.04000 F2100.00000
G1 Z0.800 F10800.000
G1 X112.310 Y98.721
G1 Z0.200
G1 E0.80000 F2100.00000
G1 F1200
G1 X111.702 Y98.114 E0.02739
G1 X111.701 Y97.570 E0.01733
G1 X112.682 Y98.552 E0.04424
G1 X113.224 Y98.552 E0.01729
G1 X111.700 Y97.027 E0.06875
G1 X111.698 Y96.483 E0.01733
G1 X113.767 Y98.552 E0.09326
G1 X114.309 Y98.552 E0.01729
G1 X111.697 Y95.940 E0.11777
G1 X111.695 Y95.396 E0.01733
G1 X114.851 Y98.552 E0.14227
G1 X115.393 Y98.552 E0.01729
G1 X111.694 Y94.853 E0.16678
G1 X111.693 Y94.309 E0.01733
G1 X115.936 Y98.552 E0.19129
G1 X116.478 Y98.552 E0.01729
G1 X111.691 Y93.765 E0.21580
G1 X111.690 Y93.222 E0.01733
G1 X117.020 Y98.552 E0.24030
G1 X117.562 Y98.552 E0.01729
G1 X111.689 Y92.678 E0.26481
G1 X111.688 Y92.454 E0.00716
G1 X111.648 Y92.095 E0.01151
G1 X117.805 Y98.252 E0.27760
G1 X117.806 Y97.711 E0.01724
G1 X111.567 Y91.472 E0.28128
G1 X111.275 Y90.638 E0.02817
G1 X117.807 Y97.170 E0.29450
G1 X117.809 Y96.630 E0.01724
G1 X105.635 Y84.456 E0.54887
G1 X106.177 Y84.456 E0.01729
G1 X117.810 Y96.089 E0.52448
G1 X117.812 Y95.548 E0.01724
G1 X106.719 Y84.456 E0.50010
G1 X107.261 Y84.456 E0.01729
G1 X117.813 Y95.007 E0.47572
G1 X117.814 Y94.466 E0.01724
G1 X107.804 Y84.456 E0.45133
G1 X108.346 Y84.456 E0.01729
G1 X117.816 Y93.925 E0.42695
G1 X117.817 Y93.385 E0.01724
G1 X108.888 Y84.456 E0.40256
G1 X109.430 Y84.456 E0.01729
G1 X117.818 Y92.844 E0.37818
G1 X117.835 Y92.318 E0.01677
G1 X109.972 Y84.456 E0.35447
G1 X110.515 Y84.456 E0.01729
G1 X117.890 Y91.830 E0.33250
G1 X117.925 Y91.516 E0.01010
G1 X117.975 Y91.373 E0.00480
G1 X111.057 Y84.456 E0.31190
G1 X111.599 Y84.456 E0.01729
G1 X118.115 Y90.972 E0.29379
G1 X118.257 Y90.571 E0.01354
G1 X112.141 Y84.456 E0.27573
G1 X112.684 Y84.456 E0.01729
G1 X118.466 Y90.238 E0.26072
G1 X118.676 Y89.905 E0.01254
G1 X113.226 Y84.456 E0.24571
G1 X113.768 Y84.456 E0.01729
G1 X118.915 Y89.603 E0.23206
G1 X119.186 Y89.332 E0.01222
G1 X114.310 Y84.456 E0.21984
G1 X114.852 Y84.456 E0.01729
G1 X119.457 Y89.060 E0.20761
G1 X119.784 Y88.845 E0.01248
G1 X115.395 Y84.456 E0.19789
G1 X115.937 Y84.456 E0.01729
G1 X120.117 Y88.636 E0.18846
G1 X120.327 Y88.503 E0.00792
G1 X120.475 Y88.452 E0.00499
G1 X116.479 Y84.456 E0.18017
G1 X117.021 Y84.456 E0.01729
G1 X120.877 Y88.311 E0.17383
G1 X121.283 Y88.175 E0.01365
G1 X117.563 Y84.456 E0.16768
G1 X118.106 Y84.456 E0.01729
G1 X121.769 Y88.119 E0.16517
G1 X122.262 Y88.069 E0.01578
G1 X118.648 Y84.456 E0.16292
G1 X119.190 Y84.456 E0.01729
G1 X122.802 Y88.068 E0.16286
G1 X123.343 Y88.066 E0.01724
G1 X119.732 Y84.456 E0.16280
G1 X120.275 Y84.456 E0.01729
G1 X123.884 Y88.065 E0.16274
G1 X124.425 Y88.064 E0.01724
G1 X120.817 Y84.456 E0.16268
G1 X121.359 Y84.456 E0.01729
G1 X124.966 Y88.062 E0.16261
G1 X125.507 Y88.061 E0.01724
G1 X121.901 Y84.456 E0.16255
G1 X122.443 Y84.456 E0.01729
G1 X126.047 Y88.060 E0.16249
G1 X126.588 Y88.058 E0.01724
G1 X122.986 Y84.456 E0.16243
G1 X123.528 Y84.456 E0.01729
G1 X127.129 Y88.057 E0.16237
G1 X127.670 Y88.056 E0.01724
G1 X124.070 Y84.456 E0.16231
G1 X124.612 Y84.456 E0.01729
G1 X128.211 Y88.054 E0.16225
G1 X128.302 Y88.054 E0.00290
G1 X128.302 Y87.603 E0.01438
G1 X125.154 Y84.456 E0.14190
G1 X125.697 Y84.456 E0.01729
G1 X128.302 Y87.061 E0.11745
G1 X128.302 Y86.519 E0.01729
G1 X126.239 Y84.456 E0.09301
G1 X126.781 Y84.456 E0.01729
G1 X128.302 Y85.976 E0.06856
G1 X128.302 Y85.434 E0.01729
G1 X127.323 Y84.456 E0.04412
G1 X127.865 Y84.456 E0.01729
G1 X128.471 Y85.062 E0.02732
G1 F8640
G1 X127.865 Y84.456 E-0.19789
G1 X127.323 Y84.456 E-0.12520
G1 X128.302 Y85.434 E-0.31953
G1 X128.302 Y85.942 E-0.11738
G1 E-0.04000 F2100.00000
G1 Z0.800 F10800.000
G1 X131.914 Y98.165
G1 Z0.200
G1 E0.80000 F2100.00000
G1 F1200
G1 X138.579 Y98.165 E0.20897
G1 X138.595 Y104.529 E0.19952
G1 X138.695 Y105.421 E0.02815
G1 X139.002 Y106.299 E0.02918
G1 X139.498 Y107.087 E0.02918
G1 X140.155 Y107.745 E0.02918
G1 X140.943 Y108.240 E0.02918
G1 X141.822 Y108.548 E0.02918
G1 X142.713 Y108.648 E0.02811
G1 X149.077 Y108.664 E0.19956
G1 X149.077 Y115.329 E0.20897
G1 X142.713 Y115.345 E0.19956
G1 X141.822 Y115.445 E0.02811
G1 X140.943 Y115.752 E0.02918
G1 X140.155 Y116.248 E0.02918
G1 X139.498 Y116.905 E0.02918
G1 X139.002 Y117.693 E0.02918
G1 X138.695 Y118.572 E0.02918
G1 X138.595 Y119.463 E0.02811
G1 X138.579 Y125.827 E0.19956
G1 X131.914 Y125.827 E0.20897
G1 X131.898 Y119.463 E0.19956
G1 X131.798 Y118.572 E0.02811
G1 X131.490 Y117.693 E0.02918
G1 X130.995 Y116.905 E0.02918
G1 X130.337 Y116.248 E0.02918
G1 X129.549 Y115.752 E0.02918
G1 X128.671 Y115.445 E0.02918
G1 X127.780 Y115.345 E0.02811
G1 X121.415 Y115.329 E0.19956
G1 X121.415 Y108.664 E0.20897
G1 X127.780 Y108.648 E0.19956
G1 X128.671 Y108.548 E0.02811
G1 X129.549 Y108.240 E0.02918
G1 X130.337 Y107.745 E0.02918
G1 X130.995 Y107.087 E0.02918
G1 X131.490 Y106.299 E0.02918
G1 X131.798 Y105.421 E0.02918
G1 X131.898 Y104.530 E0.02811
G1 X131.914 Y98.225 E0.19768
G1 X131.538 Y97.788 F10800.000
G1 F1200
G1 X138.955 Y97.788 E0.23256
G1 X138.972 Y104.508 E0.21069
G1 X139.065 Y105.337 E0.02614
G1 X139.344 Y106.135 E0.02651
G1 X139.794 Y106.851 E0.02651
G1 X140.392 Y107.448 E0.02651
G1 X141.108 Y107.898 E0.02651
G1 X141.906 Y108.178 E0.02651
G1 X142.734 Y108.271 E0.02613
G1 X149.454 Y108.288 E0.21070
G1 X149.454 Y115.705 E0.23256
G1 X142.734 Y115.722 E0.21070
G1 X141.906 Y115.815 E0.02613
G1 X141.108 Y116.094 E0.02651
G1 X140.392 Y116.544 E0.02651
G1 X139.794 Y117.142 E0.02651
G1 X139.344 Y117.858 E0.02651
G1 X139.065 Y118.656 E0.02651
G1 X138.972 Y119.484 E0.02613
G1 X138.955 Y126.204 E0.21070
G1 X131.538 Y126.204 E0.23256
G1 X131.521 Y119.484 E0.21070
G1 X131.428 Y118.656 E0.02613
G1 X131.148 Y117.858 E0.02651
G1 X130.698 Y117.142 E0.02651
G1 X130.101 Y116.544 E0.02651
G1 X129.385 Y116.094 E0.02651
G1 X128.587 Y115.815 E0.02651
G1 X127.758 Y115.722 E0.02613
G1 X121.038 Y115.705 E0.21070
G1 X121.038 Y108.288 E0.23256
G1 X127.758 Y108.271 E0.21070
G1 X128.587 Y108.178 E0.02613
G1 X129.385 Y107.898 E0.02651
G1 X130.101 Y107.448 E0.02651
G1 X130.698 Y106.851 E0.02651
G1 X131.148 Y106.135 E0.02651
G1 X131.428 Y105.337 E0.02651
G1 X131.521 Y104.508 E0.02613
G1 X131.538 Y97.848 E0.20882
G1 X131.883 Y97.990 F10800.000
G1 F8640
G1 X134.829 Y97.822 E-0.76000
G1 E-0.04000 F2100.00000
G1 Z0.800 F10800.000
G1 X137.695 Y98.279
G1 Z0.200
G1 E0.80000 F2100.00000
G1 F1200
G1 X138.298 Y98.881 E0.02700
G1 X138.299 Y99.421 E0.01712
G1 X137.326 Y98.448 E0.04361
G1 X136.787 Y98.448 E0.01707
G1 X138.301 Y99.962 E0.06782
G1 X138.302 Y100.502 E0.01712
G1 X136.248 Y98.448 E0.09203
G1 X135.709 Y98.448 E0.01707
G1 X138.304 Y101.042 E0.11624
G1 X138.305 Y101.583 E0.01712
G1 X135.170 Y98.448 E0.14046
G1 X134.632 Y98.448 E0.01707
G1 X138.306 Y102.123 E0.16467
G1 X138.308 Y102.663 E0.01712
G1 X134.093 Y98.448 E0.18888
G1 X133.554 Y98.448 E0.01707
G1 X138.309 Y103.204 E0.21309
M73 Q5 S18
G1 X138.311 Y103.744 E0.01712
G1 X133.015 Y98.448 E0.23730
M73 P5 R18
G1 X132.476 Y98.448 E0.01707
G1 X138.312 Y104.284 E0.26151
G1 X138.312 Y104.545 E0.00824
G1 X138.347 Y104.858 E0.01000
G1 X132.195 Y98.706 E0.27566
G1 X132.194 Y99.244 E0.01703
G1 X138.416 Y105.466 E0.27878
G1 X138.699 Y106.288 E0.02755
G1 X132.193 Y99.782 E0.29153
G1 X132.191 Y100.319 E0.01703
G1 X146.924 Y115.051 E0.66014
G1 X147.461 Y115.050 E0.01703
G1 X140.955 Y108.544 E0.29153
G1 X141.777 Y108.827 E0.02755
G1 X147.999 Y115.049 E0.27878
G1 X148.536 Y115.047 E0.01703
G1 X142.384 Y108.895 E0.27566
G1 X142.696 Y108.931 E0.00995
G1 X142.959 Y108.931 E0.00832
G1 X148.794 Y114.767 E0.26148
G1 X148.794 Y114.228 E0.01707
G1 X143.499 Y108.933 E0.23727
G1 X144.040 Y108.934 E0.01712
G1 X148.794 Y113.689 E0.21306
G1 X148.794 Y113.150 E0.01707
G1 X144.580 Y108.935 E0.18885
G1 X145.120 Y108.937 E0.01712
G1 X148.794 Y112.611 E0.16464
G1 X148.794 Y112.072 E0.01707
G1 X145.660 Y108.938 E0.14043
G1 X146.201 Y108.939 E0.01712
G1 X148.794 Y111.533 E0.11623
G1 X148.794 Y110.994 E0.01707
G1 X146.741 Y108.941 E0.09202
G1 X147.281 Y108.942 E0.01712
G1 X148.794 Y110.456 E0.06781
G1 X148.794 Y109.917 E0.01707
G1 X147.821 Y108.944 E0.04360
G1 X148.362 Y108.945 E0.01712
G1 X148.964 Y109.547 E0.02700
G1 F8640
G1 X148.362 Y108.945 E-0.19675
G1 X147.821 Y108.944 E-0.12475
G1 X148.794 Y109.917 E-0.31775
G1 X148.794 Y110.440 E-0.12076
G1 E-0.04000 F2100.00000
G1 Z0.800 F10800.000
G1 X146.555 Y115.222
G1 Z0.200
G1 E0.80000 F2100.00000
G1 F1200
G1 X132.190 Y100.857 E0.64370
G1 X132.189 Y101.394 E0.01703
G1 X145.848 Y115.054 E0.61209
G1 X145.311 Y115.055 E0.01703
G1 X132.187 Y101.932 E0.58806
G1 X132.186 Y102.469 E0.01703
G1 X144.773 Y115.057 E0.56403
G1 X144.236 Y115.058 E0.01703
G1 X132.185 Y103.007 E0.54001
G1 X132.183 Y103.544 E0.01703
G1 X143.698 Y115.059 E0.51598
G1 X143.161 Y115.061 E0.01703
G1 X132.182 Y104.082 E0.49196
G1 X132.173 Y104.612 E0.01680
G1 X142.631 Y115.069 E0.46858
G1 X142.146 Y115.124 E0.01544
G1 X132.119 Y105.096 E0.44932
G1 X132.075 Y105.484 E0.01237
G1 X132.047 Y105.564 E0.00267
G1 X141.679 Y115.196 E0.43159
G1 X141.280 Y115.335 E0.01340
G1 X131.907 Y105.963 E0.41996
G1 X131.768 Y106.362 E0.01340
G1 X140.880 Y115.475 E0.40833
G1 X140.539 Y115.672 E0.01250
G1 X131.570 Y106.704 E0.40189
G1 X131.362 Y107.034 E0.01238
G1 X140.208 Y115.880 E0.39638
G1 X139.978 Y116.025 E0.00861
G1 X139.896 Y116.107 E0.00368
G1 X131.136 Y107.347 E0.39255
G1 X130.866 Y107.616 E0.01207
G1 X139.627 Y116.377 E0.39255
G1 X139.357 Y116.646 E0.01207
G1 X130.597 Y107.886 E0.39255
G1 X130.515 Y107.968 E0.00368
G1 X130.284 Y108.112 E0.00861
G1 X139.130 Y116.958 E0.39638
G1 X138.922 Y117.289 E0.01238
G1 X129.953 Y108.320 E0.40189
G1 X129.612 Y108.518 E0.01250
G1 X138.725 Y117.630 E0.40833
G1 X138.585 Y118.030 E0.01340
G1 X129.213 Y108.657 E0.41996
G1 X128.814 Y108.797 E0.01340
G1 X138.446 Y118.429 E0.43159
G1 X138.418 Y118.508 E0.00267
G1 X138.374 Y118.896 E0.01237
G1 X128.346 Y108.869 E0.44933
G1 X127.862 Y108.923 E0.01544
G1 X138.319 Y119.381 E0.46858
G1 X138.311 Y119.911 E0.01680
G1 X127.332 Y108.932 E0.49196
G1 X126.794 Y108.933 E0.01703
G1 X138.309 Y120.448 E0.51599
G1 X138.308 Y120.986 E0.01703
G1 X126.257 Y108.935 E0.54001
G1 X125.719 Y108.936 E0.01703
G1 X138.307 Y121.523 E0.56404
G1 X138.305 Y122.061 E0.01703
G1 X125.182 Y108.937 E0.58806
G1 X124.644 Y108.939 E0.01703
G1 X138.304 Y122.599 E0.61209
G1 X138.303 Y123.136 E0.01703
G1 X124.107 Y108.940 E0.63611
G1 X123.569 Y108.941 E0.01703
G1 X138.301 Y123.674 E0.66014
G1 X138.300 Y124.211 E0.01703
G1 X131.794 Y117.705 E0.29153
G1 X132.077 Y118.527 E0.02755
G1 X138.299 Y124.749 E0.27878
G1 X138.297 Y125.286 E0.01703
G1 X132.145 Y119.134 E0.27565
G1 X132.181 Y119.446 E0.00995
G1 X132.181 Y119.709 E0.00833
G1 X138.017 Y125.544 E0.26147
G1 X137.478 Y125.544 E0.01707
G1 X132.183 Y120.249 E0.23727
G1 X132.184 Y120.790 E0.01712
G1 X136.939 Y125.544 E0.21306
G1 X136.400 Y125.544 E0.01707
G1 X132.185 Y121.330 E0.18885
G1 X132.187 Y121.870 E0.01712
G1 X135.861 Y125.544 E0.16464
G1 X135.322 Y125.544 E0.01707
G1 X132.188 Y122.410 E0.14043
G1 X132.189 Y122.951 E0.01712
G1 X134.783 Y125.544 E0.11622
G1 X134.244 Y125.544 E0.01707
G1 X132.191 Y123.491 E0.09202
G1 X132.192 Y124.031 E0.01712
G1 X133.705 Y125.544 E0.06781
